X: 0
T: Lift Up Your Heads, Ye mighty Gates
Z: August Lemke, 1849
Z: Copyright © 2004 by Douglas D. Anderson
Z: Released To The Public Domain
L: 1/4
M: 3/4
Q: 1/4=130
V: P1 name="Staff"
%%MIDI program 1 19
K: Ab
[V: P1]  E | c2 A | (A G) A | B2 G E2 E | (E F) G | A2 F | E2 D | C2 C | (E A) c | (B G) E | (A F) =D | E2 E | A2 B | c2 A | (G F) D | E2 A | G2 B | A2 c | B2 d | c2 E | (d c) B | (A G) F | E2 E | E2 e | e2 c | d2 e | c2 E | (F d) B | A2 G A2|]
w: Lift up your heads,_ ye might- y gates! Be- hold,_ the King of Glo- ry waits; The King_ of kings_ is draw-_ ing near, The Sa- vior of the world_ is here. Life and sal- va tion He doth bring, Where- fore_ re- joice_ and glad- ly sing: We praise Thee, Fa- ther, now, Cre- a_ tor, wise art Thou!

